resources/icons/cisco/softswitchpgwmgc.svg

<?xml version="1.0" encoding="UTF-8"?>
<svg xmlns="http://www.w3.org/2000/svg" xmlns:xlink="http://www.w3.org/1999/xlink" width="165pt" height="200pt" viewBox="0 0 165 200" version="1.1">
<defs>
<clipPath id="clip1">
  <path d="M 12 0 L 160 0 L 160 196.144531 L 12 196.144531 Z M 12 0 "/>
</clipPath>
</defs>
<g id="surface1">
<path style="fill-rule:nonzero;fill:rgb(100%,100%,100%);fill-opacity:1;stroke-width:4;stroke-linecap:butt;stroke-linejoin:miter;stroke:rgb(0.784314%,42.352941%,60.784314%);stroke-opacity:1;stroke-miterlimit:4;" d="M 50.660693 92.76863 L 43.441142 92.76863 C 7.300044 92.76863 1.987544 125.268029 1.987544 125.268029 L 1.987544 91.518179 C 1.987544 91.518179 7.300044 59.01878 43.441142 59.01878 L 50.041521 59.01878 " transform="matrix(0.630882,0,0,-0.634146,0,201.219512)"/>
<path style=" stroke:none;fill-rule:nonzero;fill:rgb(0.784314%,42.352941%,60.784314%);fill-opacity:1;" d="M 27.109375 191.316406 L 129.085938 191.316406 L 129.085938 12.5625 L 27.109375 12.5625 Z M 27.109375 191.316406 "/>
<path style=" stroke:none;fill-rule:nonzero;fill:rgb(0.784314%,42.352941%,60.784314%);fill-opacity:1;" d="M 27.109375 12.5625 L 46.578125 -3.34375 L 144.90625 -3.34375 L 129.082031 12.5625 L 27.109375 12.5625 M 129.085938 191.316406 L 144.90625 171.722656 L 144.90625 -3.34375 L 129.085938 12.5625 L 129.085938 191.316406 "/>
<path style="fill-rule:nonzero;fill:rgb(0.784314%,42.352941%,60.784314%);fill-opacity:1;stroke-width:4;stroke-linecap:butt;stroke-linejoin:miter;stroke:rgb(100%,100%,100%);stroke-opacity:1;stroke-miterlimit:4;" d="M 42.970571 15.616436 L 204.611742 15.616436 L 204.611742 297.497596 L 42.970571 297.497596 Z M 42.970571 15.616436 " transform="matrix(0.630882,0,0,-0.634146,0,201.219512)"/>
<path style=" stroke:none;fill-rule:nonzero;fill:rgb(0.784314%,42.352941%,60.784314%);fill-opacity:1;" d="M 27.109375 12.5625 L 46.578125 -3.34375 L 144.90625 -3.34375 L 129.082031 12.5625 L 27.109375 12.5625 "/>
<path style="fill:none;stroke-width:4;stroke-linecap:butt;stroke-linejoin:miter;stroke:rgb(100%,100%,100%);stroke-opacity:1;stroke-miterlimit:4;" d="M 42.970571 297.497596 L 73.830128 322.580529 L 229.688228 322.580529 L 204.605551 297.497596 Z M 42.970571 297.497596 " transform="matrix(0.630882,0,0,-0.634146,0,201.219512)"/>
<path style=" stroke:none;fill-rule:nonzero;fill:rgb(0.784314%,42.352941%,60.784314%);fill-opacity:1;" d="M 129.085938 191.316406 L 144.90625 171.722656 L 144.90625 -3.34375 L 129.085938 12.5625 L 129.085938 191.316406 "/>
<g clip-path="url(#clip1)" clip-rule="nonzero">
<path style="fill:none;stroke-width:4;stroke-linecap:butt;stroke-linejoin:miter;stroke:rgb(100%,100%,100%);stroke-opacity:1;stroke-miterlimit:4;" d="M 204.611742 15.616436 L 229.688228 46.514273 L 229.688228 322.580529 L 204.611742 297.497596 Z M 42.970571 15.616436 L 204.611742 15.616436 L 204.611742 297.497596 L 42.970571 297.497596 Z M 42.970571 15.616436 " transform="matrix(0.630882,0,0,-0.634146,0,201.219512)"/>
<path style="fill:none;stroke-width:4;stroke-linecap:butt;stroke-linejoin:miter;stroke:rgb(100%,100%,100%);stroke-opacity:1;stroke-miterlimit:4;" d="M 42.970571 297.497596 L 73.830128 322.580529 L 229.688228 322.580529 L 204.605551 297.497596 Z M 204.611742 15.616436 L 229.688228 46.514273 L 229.688228 322.580529 L 204.611742 297.497596 Z M 204.611742 15.616436 " transform="matrix(0.630882,0,0,-0.634146,0,201.219512)"/>
</g>
<path style="fill-rule:nonzero;fill:rgb(100%,100%,100%);fill-opacity:1;stroke-width:4;stroke-linecap:butt;stroke-linejoin:miter;stroke:rgb(0.784314%,42.352941%,60.784314%);stroke-opacity:1;stroke-miterlimit:4;" d="M 227.5397 59.721004 L 263.587922 59.721004 L 263.587922 93.587891 L 227.5397 93.470853 " transform="matrix(0.630882,0,0,-0.634146,0,201.219512)"/>
<path style="fill-rule:nonzero;fill:rgb(100%,100%,100%);fill-opacity:1;stroke-width:4;stroke-linecap:butt;stroke-linejoin:miter;stroke:rgb(0.784314%,42.352941%,60.784314%);stroke-opacity:1;stroke-miterlimit:4;" d="M 49.409965 249.721755 L 8.439321 249.721755 L 8.439321 215.897987 L 44.487544 215.971905 L 48.790793 215.971905 " transform="matrix(0.630882,0,0,-0.634146,0,201.219512)"/>
<path style="fill-rule:nonzero;fill:rgb(100%,100%,100%);fill-opacity:1;stroke-width:4;stroke-linecap:butt;stroke-linejoin:miter;stroke:rgb(0.784314%,42.352941%,60.784314%);stroke-opacity:1;stroke-miterlimit:4;" d="M 223.787515 215.971905 L 228.592293 215.971905 C 264.7272 215.971905 270.510271 183.466346 270.510271 183.466346 L 270.510271 217.216196 C 270.510271 217.216196 264.770542 249.721755 228.592293 249.721755 L 220.660693 249.721755 " transform="matrix(0.630882,0,0,-0.634146,0,201.219512)"/>
<path style="fill-rule:nonzero;fill:rgb(100%,100%,100%);fill-opacity:1;stroke-width:4;stroke-linecap:butt;stroke-linejoin:miter;stroke:rgb(0.784314%,42.352941%,60.784314%);stroke-opacity:1;stroke-miterlimit:4;" d="M 270.510271 219.094952 L 270.510271 179.099008 C 266.55995 131.600361 182.340108 134.095102 182.340108 134.095102 L 182.340108 99.100962 L 127.339015 154.096154 L 182.340108 209.097506 L 182.340108 174.097206 C 182.340108 174.097206 268.015006 171.596304 270.510271 219.094952 " transform="matrix(0.630882,0,0,-0.634146,0,201.219512)"/>
<path style="fill-rule:nonzero;fill:rgb(100%,100%,100%);fill-opacity:1;stroke-width:4;stroke-linecap:butt;stroke-linejoin:miter;stroke:rgb(0.784314%,42.352941%,60.784314%);stroke-opacity:1;stroke-miterlimit:4;" d="M 2.191871 89.645583 L 2.191871 129.647686 C 4.693328 177.146334 62.189685 174.645433 62.189685 174.645433 L 62.189685 209.645733 L 117.190778 154.650541 L 62.189685 99.649189 L 62.189685 134.649489 C 62.189685 134.649489 4.693328 137.150391 2.191871 89.645583 " transform="matrix(0.630882,0,0,-0.634146,0,201.219512)"/>
</g>
</svg>

<svg xmlns="http://www.w3.org/2000/svg" viewBox="0 0 33.75 41.25" height="41.25" width="33.75"><defs><clipPath id="a"><path d="M0 8v320h270V8H0z"/></clipPath></defs><g clip-path="url(#a)" transform="matrix(.13 0 0 -.13 0 41.25)"><path d="M50.66 92.766h-7.219c-36.14 0-41.453 32.5-41.453 32.5v-33.75s5.313-32.5 41.453-32.5h6.598" fill="#fff"/><path d="M50.66 92.766h-7.219c-36.14 0-41.453 32.5-41.453 32.5v-33.75s5.313-32.5 41.453-32.5h6.598" fill="none" stroke="#026c9b" stroke-width="4"/><path d="M42.969 15.617h161.64v281.88H42.97V15.616z" fill="#026c9b"/><path d="M42.969 297.496l30.86 25.082H229.69l-25.082-25.082H42.969M204.609 15.617l25.082 30.899v276.062l-25.082-25.082V15.617" fill="#026c9b"/><path d="M42.969 15.617h161.64v281.88H42.97V15.616z" fill="#026c9b"/><path d="M42.969 15.617h161.64v281.88H42.97V15.616z" fill="none" stroke="#fff" stroke-width="4"/><path d="M42.969 297.496l30.86 25.082H229.69l-25.082-25.082H42.969" fill="#026c9b"/><path d="M42.969 297.496l30.86 25.082H229.69l-25.082-25.082H42.969z" fill="none" stroke="#fff" stroke-width="4"/><path d="M204.609 15.617l25.082 30.899v276.062l-25.082-25.082V15.617" fill="#026c9b"/><path d="M204.609 15.617l25.082 30.899v276.062l-25.082-25.082V15.617zM42.969 15.617h161.64v281.88H42.97V15.616z" fill="none" stroke="#fff" stroke-width="4"/><path d="M42.969 297.496l30.86 25.082H229.69l-25.082-25.082H42.969zM204.609 15.617l25.082 30.899v276.062l-25.082-25.082V15.617z" fill="none" stroke="#fff" stroke-width="4"/><path d="M227.539 59.719h36.051v33.867l-36.051-.117" fill="#fff"/><path d="M227.539 59.719h36.051v33.867l-36.051-.117" fill="none" stroke="#026c9b" stroke-width="4"/><path d="M49.41 249.719H8.441v-33.821l36.047.071h4.301" fill="#fff"/><path d="M49.41 249.719H8.441v-33.821l36.047.071h4.301" fill="none" stroke="#026c9b" stroke-width="4"/><path d="M223.789 215.969h4.801c36.14 0 41.922-32.5 41.922-32.5v33.75s-5.742 32.5-41.922 32.5h-7.93" fill="#fff"/><path d="M223.789 215.969h4.801c36.14 0 41.922-32.5 41.922-32.5v33.75s-5.742 32.5-41.922 32.5h-7.93" fill="none" stroke="#026c9b" stroke-width="4"/><path d="M270.512 219.098v-40c-3.953-47.5-88.172-45-88.172-45v-35l-55 55 55 55v-35s85.672-2.5 88.172 45" fill="#fff"/><path d="M270.512 219.098v-40c-3.953-47.5-88.172-45-88.172-45v-35l-55 55 55 55v-35s85.672-2.5 88.172 45" fill="none" stroke="#026c9b" stroke-width="4"/><path d="M2.191 89.648v40c2.5 47.5 60 45 60 45v35l55-55-55-55v35s-57.5 2.5-60-45" fill="#fff"/><path d="M2.191 89.648v40c2.5 47.5 60 45 60 45v35l55-55-55-55v35s-57.5 2.5-60-45" fill="none" stroke="#026c9b" stroke-width="4"/></g></svg>
